!!!COM: Bach, Johann Sebastian
!!!OPR: Joh. Seb. Bachs vierstimmige Choralgesänge
!!!XEN: Four-part Chorales
!!!OTL: 185. Wo Gott zum Haus nicht gibt sein' Gunst
!!!SCT: BWV 438
!!!SCA: Thematisch-systematisches Verzeichnis der musikalischen Werke Johann Sebastian Bach: Bach-Werke-Verzeichnis (Schmieder)
!!!YOR: Bach Gesellschaft Edition xxxix
!!!ENC: Steven Rasmussen
!!!CDT: 1685/3//-1750/7/28/
!!!OCY: Deutschland
!!!YEC: Copyright (c) 1994, 2000 Center for Computer Assisted Research in the Humanities
!!!YEM: Rights to all derivative editions reserved
!!!YEN: United States of America
**kern	**silbe	**kern	**kern	**kern
*I:[SOPRANO]	*I:[SOPRANO]	*I:[ALTO]	*I:[TENORE]	*I:[BASSO]
*clefG2	*	*clefG2	*clefGv2	*clefF4
*k[b-]	*	*k[b-]	*k[b-]	*k[b-]
*F:	*	*F:	*F:	*F:
*M4/4	*	*M4/4	*M4/4	*M4/4
4f	Wo	4c	8AL	8FL
.	.	.	8B-J	8GJ
=1	=1	=1	=1	=1
4cc	Gott	8fL	8cL	8AL
.	.	8gJ	8dJ	8B-J
8ccL	zum	8aL	4e	4c
8b-J	.	8gJ	.	.
4a	Haus	8gL	4c	4F
.	.	8fJ	.	.
4g	nicht	8fL	4c	4C
.	.	8eJ	.	.
=2	=2	=2	=2	=2
4a	gibt	8fL	4c	4F
.	.	8eJ	.	.
4bn	sein'	4d	4G	4G
4cc;	Gunst,	4e;	4G;	4C;
4cc	so	4g	4c	4E
=3	=3	=3	=3	=3
4a	ar-	8gL	4c	4F
.	.	8fJ	.	.
4cc	-beit'	8gL	8cL	8EL
.	.	8aJ	8eJ	8CJ
4b-	je-	8aL	8fL	8DL
.	.	16gL	8dJ	8GJ
.	.	16fJJ	.	.
4cc	-der	4g	4c	8EL
.	.	.	.	8CJ
=4	=4	=4	=4	=4
4a	Mann	(8g	4c	4F
.	.	4f)	.	.
4g	um-	.	8cL	4C
.	.	8e	8B-J	.
4f;	-sunst;	4c;	4A;	4FF;
4cc	wo	4f	4A	4F
=5	=5	=5	=5	=5
4dd	Gott	4f	4B-	8BB-L
.	.	.	.	8CJ
4dd	die	4f	8FL	8DL
.	.	.	8GJ	8EJ
4a	Stadt	4.c	4A	8FL
.	.	.	.	8GJ
4cc	nicht	.	8fL	8AL
.	.	8a	8e-J	8F#J
=6	=6	=6	=6	=6
4b-	selbst	8aL	4d	8GL
.	.	16gL	.	8AJ
.	.	16f#JJ	.	.
4b-	be-	4g	4d	8B-L
.	.	.	.	8cJ
4a;	-wacht,	(8gL	4d;	4d;
.	.	8f#;J)	.	.
4ff	da	4a	4d	4D
=7	=7	=7	=7	=7
4ee	ist	8aL	4c	4A
.	.	8gJ	.	.
4dd	um-	8fL	8dL	4B-
.	.	8gJ	8eJ	.
4.cc	-sonst	8aL	4f	8FL
.	.	8gJ	.	8EJ
.	.	4f	4A	4D
8dd	der	.	.	.
=8	=8	=8	=8	=8
8b-L	WÃ¤ch-	4.f	4.B-	4G
8aJ	.	.	.	.
4g	-ter	.	.	4C
.	.	8e	16cLL	.
.	.	.	16B-JJ	.
4f;	Macht.	4c;	4A;	4F;
==|!	==|!	==|!	==|!	==|!
*-	*-	*-	*-	*-
!!!RWG: Key is interpreted using the Humdrum key tool.
!!!END: 1994/08/09
!!!EMD: Converted from MuseData to Humdrum Dec 19, 2000, by Andreas Kornstaedt using muse2kern.
!!!EED: Craig Stuart Sapp
!!!EEV: 2024/03/31
!!!ONB: Some non-unicode characters
